pro/src/icons/stroke-events.svg

<svg width="48" height="48" viewBox="0 0 48 48" fill="none" xmlns="http://www.w3.org/2000/svg">
<path id="icon" fill-rule="evenodd" clip-rule="evenodd" d="M24.5918 5.17198C25.5112 4.25258 27.2208 4.23267 28.4207 5.43263L31.0673 8.07925C31.2706 8.28254 31.3278 8.61164 31.1731 8.90597C29.9527 11.1671 30.4568 14.1053 32.4307 16.0793C34.406 18.0545 37.3469 18.558 39.6087 17.3344L39.6117 17.3327C39.9005 17.1752 40.2214 17.2295 40.4241 17.4361L43.0774 20.0893C44.267 21.2789 44.2583 22.9897 43.3366 23.9196L43.3354 23.9207L23.4182 43.838C22.4988 44.7574 20.7893 44.7773 19.5893 43.5773L16.9427 40.9307C16.7394 40.7274 16.6823 40.3984 16.8369 40.1041C18.0573 37.8429 17.5532 34.9046 15.5793 32.9307C13.604 30.9555 10.6631 30.452 8.40138 31.6756L8.39835 31.6772C8.10952 31.8347 7.78866 31.7805 7.58591 31.5739L4.93268 28.9207C3.74315 27.7311 3.75177 26.0205 4.67319 25.0906L4.6746 25.0892L19.5888 10.195C19.9796 9.80475 19.9801 9.17159 19.5898 8.7808C19.1995 8.39001 18.5664 8.38959 18.1756 8.77985L3.25829 23.6771L3.25525 23.6801C1.43119 25.5175 1.68103 28.4975 3.51847 30.3349L6.16219 32.9786C7.02162 33.8509 8.32155 33.9963 9.35427 33.434C10.7616 32.6734 12.7523 32.9321 14.1651 34.3449C15.5783 35.7581 15.8367 37.7495 15.0753 39.157L15.0714 39.1643C14.5261 40.1926 14.6697 41.4862 15.5285 42.3449L18.1751 44.9915C20.0228 46.8392 23.005 47.0796 24.8324 45.2522L44.7522 25.3324L44.7548 25.3298C46.5788 23.4924 46.329 20.5125 44.4916 18.6751L41.8515 16.0351L41.8479 16.0314C40.9885 15.1591 39.6886 15.0137 38.6559 15.5759C37.2486 16.3366 35.2578 16.0779 33.845 14.665C32.4317 13.2518 32.1733 11.2604 32.9347 9.85299L32.9386 9.84566C33.4839 8.81736 33.3403 7.52379 32.4816 6.66504L29.8349 4.01842C27.9873 2.17077 25.0051 1.93031 23.1776 3.75777C22.7871 4.14829 22.7871 4.78146 23.1776 5.17198C23.5681 5.56251 24.2013 5.56251 24.5918 5.17198ZM22.3563 16.7001C21.9658 16.3096 21.3326 16.3096 20.9421 16.7001C20.5515 17.0906 20.5515 17.7238 20.9421 18.1143L30.4558 27.6281C30.8464 28.0186 31.4795 28.0186 31.8701 27.6281C32.2606 27.2376 32.2606 26.6044 31.8701 26.2139L22.3563 16.7001Z" fill="currentColor"/>
</svg>

<svg xmlns="http://www.w3.org/2000/svg" width="48" height="48" fill="none"><path id="icon" fill="currentColor" fill-rule="evenodd" d="M24.592 5.172c.92-.92 2.629-.94 3.829.26l2.646 2.647a.7.7 0 0 1 .106.827c-1.22 2.261-.716 5.2 1.258 7.173 1.975 1.976 4.916 2.479 7.178 1.255l.003-.001a.67.67 0 0 1 .812.103l2.653 2.653c1.19 1.19 1.181 2.9.26 3.83l-.002.002-19.917 19.917c-.92.92-2.629.94-3.829-.26l-2.646-2.647a.7.7 0 0 1-.106-.827c1.22-2.261.716-5.2-1.258-7.173-1.975-1.975-4.916-2.479-7.178-1.255l-.003.001a.67.67 0 0 1-.812-.103L4.933 28.92c-1.19-1.19-1.181-2.9-.26-3.83l.002-.002 14.914-14.894a1 1 0 1 0-1.413-1.415L3.258 23.677l-.003.003c-1.824 1.837-1.574 4.817.263 6.655l2.644 2.644c.86.872 2.16 1.017 3.192.455 1.408-.76 3.398-.502 4.811.91 1.413 1.414 1.672 3.405.91 4.813l-.004.007c-.545 1.029-.401 2.322.457 3.18l2.647 2.648c1.848 1.847 4.83 2.088 6.657.26l19.92-19.92.003-.002c1.824-1.838 1.574-4.817-.263-6.655l-2.64-2.64-.004-.004c-.86-.872-2.16-1.017-3.192-.455-1.407.76-3.398.502-4.811-.911s-1.672-3.405-.91-4.812l.004-.007c.545-1.029.401-2.322-.457-3.181l-2.647-2.647c-1.848-1.847-4.83-2.088-6.657-.26a1 1 0 0 0 1.414 1.414M22.356 16.7a1 1 0 0 0-1.414 1.414l9.514 9.514a1 1 0 0 0 1.414-1.414z" clip-rule="evenodd"/></svg>
